X:24
T:Old 76 Stop March
S:American Veteran Fifer, #24
C:By Jonathan Jenics.
M:2/4
L:1/8
Q:1/8=180
K:D 
%%MIDI program 72
%%MIDI transpose 8
%%MIDI ratio 3 1
|: A | Addc | defd | dAAF | GEFD |
Addc | defg | e>d c/d/e/c/ | d3 :|
|: A | defg | afdf | edef | gfez |
defg | afdf | e>d c/d/e/c/ | d3 :|



